!!!OTL: WER BEKUEMMERT SICH WENN ICH WANDRE, KEINER AUS DER COMPAGNIE
!!!ARE: Europa, Mitteleuropa, Deutschland, Baden
!!!SCT: Z0249
!!!YEM: Copyright 1995, estate of Helmut Schaffrath.
**kern
*ICvox
*Ivox
*M3/4
*k[f#c#g#]
*A:
{8e
8g#
=1
4a
8cc#
8cc#
8b
8b
=2
8a
8cc#
4cc#}
{8b
8cc#
=3
4.dd
8b
8cc#
8a
=4
4b
4r}
{8a
8cc#
=5
8ee
8ee
8ee
8ee
8ff#
8ee
=6
8ee
8dd
8dd}
{8ff#
8ee
8dd
=7
4cc#
8cc#
8cc#
8ee
8cc#
=8
8b
8a
4b}
{8a
8cc#
=9
4ee
4cc#
8b
8b
=10
4a
4r}
==
!!!AGN: Soldaten -, Abschieds - Lied
!!!ONB: ESAC (Essen Associative Code) Database: ZUCCAL
!!!AMT: simple triple
!!!AIN: vox
!!!EED: Helmut Schaffrath
!!!EEV: 1.0
*-
